assets/arrow-to-down-fill.svg

<svg xmlns="http://www.w3.org/2000/svg" fill="none" viewBox="0 0 28 28">
  <path fill="#2A2238" fill-rule="evenodd" d="M14 28C6.26801 28 0 21.732 0 14 0 6.26801 6.26801 0 14 0c7.732 0 14 6.26801 14 14 0 7.732-6.268 14-14 14Zm-.6062-8.05L6.81199 8.55c-.26943-.46667.06736-1.05.60622-1.05H20.5818c.5389 0 .8756.58333.6062 1.05l-6.5818 11.4c-.0838.1451-.2067.2451-.3443.3H20c.4142 0 .75.3358.75.75s-.3358.75-.75.75H7c-.41421 0-.75-.3358-.75-.75s.33579-.75.75-.75h6.7381c-.1376-.0549-.2605-.1549-.3443-.3Z" clip-rule="evenodd"/>
</svg>

<svg width="28" height="28" viewBox="0 0 28 28" fill="none" xmlns="http://www.w3.org/2000/svg">
<path fill-rule="evenodd" clip-rule="evenodd" d="M14 28C6.26801 28 0 21.732 0 14C0 6.26801 6.26801 0 14 0C21.732 0 28 6.26801 28 14C28 21.732 21.732 28 14 28ZM13.3938 19.95L6.81199 8.55C6.54256 8.08333 6.87935 7.5 7.41821 7.5H20.5818C21.1207 7.5 21.4574 8.08333 21.188 8.55L14.6062 19.95C14.5224 20.0951 14.3995 20.1951 14.2619 20.25H20C20.4142 20.25 20.75 20.5858 20.75 21C20.75 21.4142 20.4142 21.75 20 21.75H7C6.58579 21.75 6.25 21.4142 6.25 21C6.25 20.5858 6.58579 20.25 7 20.25H13.7381C13.6005 20.1951 13.4776 20.0951 13.3938 19.95Z" fill="#2A2238"/>
</svg>
